Humanity/apps/16/system-upgrade.svg

<?xml version="1.0" encoding="UTF-8" standalone="no"?>
<!-- Created with Inkscape (http://www.inkscape.org/) -->

<svg
   xmlns:svg="http://www.w3.org/2000/svg"
   xmlns="http://www.w3.org/2000/svg"
   xmlns:xlink="http://www.w3.org/1999/xlink"
   version="1.0"
   width="16"
   height="16"
   id="svg3327">
  <defs
     id="defs3329">
    <linearGradient
       id="linearGradient5128">
      <stop
         id="stop5130"
         style="stop-color:#e5e5e5;stop-opacity:1"
         offset="0" />
      <stop
         id="stop5132"
         style="stop-color:#ababab;stop-opacity:1"
         offset="1" />
    </linearGradient>
    <linearGradient
       x1="86.132919"
       y1="105.105"
       x2="84.63858"
       y2="20.895"
       id="linearGradient3260"
       xlink:href="#linearGradient5128"
       gradientUnits="userSpaceOnUse"
       gradientTransform="matrix(0.09614231,0,0,0.09614231,1.8468935,1.9430362)" />
    <linearGradient
       id="linearGradient3397">
      <stop
         id="stop3399"
         style="stop-color:#aaa;stop-opacity:1"
         offset="0" />
      <stop
         id="stop3401"
         style="stop-color:#8c8c8c;stop-opacity:1"
         offset="1" />
    </linearGradient>
    <linearGradient
       x1="21"
       y1="0"
       x2="21"
       y2="16.004715"
       id="linearGradient3264"
       xlink:href="#linearGradient3397"
       gradientUnits="userSpaceOnUse"
       gradientTransform="translate(-17.058189,0)" />
    <linearGradient
       x1="63.9995"
       y1="3.1001"
       x2="63.9995"
       y2="122.8994"
       id="linearGradient3309"
       gradientUnits="userSpaceOnUse">
      <stop
         id="stop3311"
         style="stop-color:#f6f6f6;stop-opacity:1"
         offset="0" />
      <stop
         id="stop3313"
         style="stop-color:#ccc;stop-opacity:1"
         offset="1" />
    </linearGradient>
    <linearGradient
       x1="25"
       y1="0"
       x2="25"
       y2="16.000105"
       id="linearGradient3262"
       xlink:href="#linearGradient3309"
       gradientUnits="userSpaceOnUse"
       gradientTransform="translate(-17.058189,0)" />
    <linearGradient
       id="linearGradient5432">
      <stop
         id="stop5434"
         style="stop-color:#ce5c00;stop-opacity:1"
         offset="0" />
      <stop
         id="stop5436"
         style="stop-color:#ce5c00;stop-opacity:0"
         offset="1" />
    </linearGradient>
    <linearGradient
       x1="22.760281"
       y1="29.13673"
       x2="22.760281"
       y2="43.25127"
       id="linearGradient2547"
       xlink:href="#linearGradient5432"
       gradientUnits="userSpaceOnUse"
       gradientTransform="matrix(0.4055957,0,0,0.4196387,2.2935793,-2.1693623)" />
    <linearGradient
       id="linearGradient2442">
      <stop
         id="stop2444"
         style="stop-color:#fcaf3e;stop-opacity:1"
         offset="0" />
      <stop
         id="stop2446"
         style="stop-color:#f57900;stop-opacity:0"
         offset="1" />
    </linearGradient>
    <linearGradient
       x1="23.214079"
       y1="23.890959"
       x2="51.247524"
       y2="23.890959"
       id="linearGradient2545"
       xlink:href="#linearGradient2442"
       gradientUnits="userSpaceOnUse"
       gradientTransform="matrix(0,0.2112836,-0.2042131,0,16.403898,5.1527832)" />
    <linearGradient
       id="linearGradient4222">
      <stop
         id="stop4224"
         style="stop-color:white;stop-opacity:1"
         offset="0" />
      <stop
         id="stop4226"
         style="stop-color:white;stop-opacity:0"
         offset="1" />
    </linearGradient>
    <linearGradient
       x1="22.760281"
       y1="29.13673"
       x2="22.760281"
       y2="42.241817"
       id="linearGradient3325"
       xlink:href="#linearGradient4222"
       gradientUnits="userSpaceOnUse"
       gradientTransform="matrix(0.4055957,0,0,0.4196387,2.2935793,-2.1693623)" />
  </defs>
  <g
     id="layer1">
    <g
       id="g3361">
      <g
         id="g2479">
        <path
           d="M 6.9375,0.5 C 6.6890831,0.5 6.5,0.68908218 6.5,0.9375 l 0,1.25 C 5.9460971,2.3297005 5.448836,2.5593783 4.96875,2.84375 L 4.0625,1.9375 c -0.1756569,-0.1756579 -0.449342,-0.1756579 -0.625,0 l -1.5,1.5 c -0.175657,0.1756579 -0.175657,0.4493421 0,0.625 L 2.84375,4.96875 C 2.5593789,5.4488356 2.329701,5.9460968 2.1875,6.5 l -1.25,0 C 0.68908301,6.5 0.5,6.6890821 0.5,6.9375 l 0,2.125 c 1e-8,0.2484178 0.189083,0.4375 0.4375,0.4375 l 1.25,0 c 0.1422009,0.553903 0.371879,1.051164 0.65625,1.53125 L 1.9375,11.9375 c -0.175657,0.175658 -0.175657,0.449342 0,0.625 l 1.5,1.5 c 0.1756579,0.175658 0.449342,0.175658 0.625,0 L 4.96875,13.15625 C 5.4488361,13.440622 5.946097,13.6703 6.5,13.8125 l 0,1.25 c 1e-7,0.248418 0.189083,0.4375 0.4375,0.4375 l 2.125,0 C 9.3109176,15.5 9.5,15.310918 9.5,15.0625 l 0,-1.25 c 0.553903,-0.1422 1.051164,-0.371878 1.53125,-0.65625 l 0.90625,0.90625 c 0.175658,0.175658 0.449342,0.175658 0.625,0 l 1.5,-1.5 c 0.175658,-0.175658 0.175658,-0.449342 0,-0.625 L 13.15625,11.03125 C 13.440622,10.551164 13.6703,10.053903 13.8125,9.5 l 1.25,0 C 15.310918,9.5 15.5,9.3109174 15.5,9.0625 l 0,-2.125 C 15.5,6.6890822 15.310917,6.5 15.0625,6.5 l -1.25,0 C 13.6703,5.9460968 13.440622,5.4488356 13.15625,4.96875 L 14.0625,4.0625 c 0.175658,-0.1756579 0.175658,-0.449342 0,-0.625 l -1.5,-1.5 c -0.175658,-0.1756579 -0.449342,-0.1756579 -0.625,0 L 11.03125,2.84375 C 10.551164,2.5593783 10.053903,2.3297005 9.5,2.1875 l 0,-1.25 C 9.4999996,0.68908218 9.310918,0.5 9.0625,0.5 l -2.125,0 z M 8,6 c 1.104,0 2,0.896 2,2 0,1.104 -0.896,2 -2,2 C 6.896,10 6,9.104 6,8 6,6.896 6.896,6 8,6 z"
           id="path2426"
           style="fill:url(#linearGradient3262);fill-opacity:1;fill-rule:nonzero;stroke:url(#linearGradient3264);stroke-width:0.99999994;stroke-linecap:butt;stroke-linejoin:round;stroke-miterlimit:4;stroke-opacity:1;stroke-dasharray:none;stroke-dashoffset:0;marker:none;visibility:visible;display:block;overflow:visible;enable-background:accumulate" />
        <path
           d="M 8,3.465116 C 5.4994229,3.465116 3.4651163,5.499423 3.4651163,8 3.4651163,10.500577 5.4994229,12.534884 8,12.534884 10.500576,12.534883 12.534884,10.500577 12.534884,8 12.534884,5.499423 10.500576,3.465116 8,3.465116 z M 8,5.55814 c 1.347907,0 2.44186,1.093953 2.44186,2.44186 0,1.347907 -1.093953,2.44186 -2.44186,2.44186 C 6.652093,10.44186 5.5581395,9.347907 5.5581395,8 5.5581395,6.652093 6.652093,5.55814 8,5.55814 z"
           id="path3315"
           style="opacity:0.05;fill:black;fill-opacity:1;stroke:none" />
        <path
           d="M 8.0000001,4 C 5.7943997,4 3.9999999,5.7944001 3.9999999,8.0000008 3.9999999,10.2056 5.7943997,12 8.0000001,12 10.2056,12 12,10.2056 12,8.0000008 12,5.7944001 10.2056,4 8.0000001,4 z"
           id="path28"
           style="fill:none;stroke:url(#linearGradient3260);stroke-width:1;stroke-miterlimit:4;stroke-dasharray:none" />
      </g>
    </g>
    <path
       d="M 15.556941,9.5 11.5,4.5 7.493161,9.5 9.5,9.5 l 0,7 4,0 0,-7 2.056941,0 z"
       id="path2487"
       style="fill:url(#linearGradient2545);fill-opacity:1;fill-rule:nonzero;stroke:url(#linearGradient2547);stroke-width:1;stroke-linecap:round;stroke-linejoin:round;stroke-miterlimit:4;stroke-opacity:1;stroke-dasharray:none;stroke-dashoffset:0;marker:none;visibility:visible;display:inline;overflow:visible" />
    <path
       d="M 11.5,6.09375 9.59375,8.5 c 0.514509,0.050258 0.90672,0.4830424 0.90625,1 l 0,5 2,0 0,-5 c 8.67e-4,-0.5280186 0.410635,-0.9651048 0.9375,-1 L 11.5,6.09375 z"
       id="path3323"
       style="opacity:0.4;fill:none;stroke:url(#linearGradient3325);stroke-width:1;stroke-linecap:round;stroke-linejoin:miter;stroke-miterlimit:4;stroke-opacity:1;stroke-dasharray:none;stroke-dashoffset:0;marker:none;visibility:visible;display:inline;overflow:visible" />
  </g>
</svg>

<?xml version="1.0" encoding="UTF-8" standalone="no"?>
<!-- Created with Inkscape (http://www.inkscape.org/) -->
<svg id="svg3327" xmlns="http://www.w3.org/2000/svg" height="16" width="16" version="1.0" xmlns:xlink="http://www.w3.org/1999/xlink">
 <defs id="defs3329">
  <linearGradient id="linearGradient3260" y2="20.895" gradientUnits="userSpaceOnUse" x2="84.639" gradientTransform="matrix(.096142 0 0 .096142 1.8469 1.943)" y1="105.1" x1="86.133">
   <stop id="stop5130" style="stop-color:#e5e5e5" offset="0"/>
   <stop id="stop5132" style="stop-color:#ababab" offset="1"/>
  </linearGradient>
  <linearGradient id="linearGradient3264" y2="16.005" gradientUnits="userSpaceOnUse" x2="21" gradientTransform="translate(-17.058)" x1="21">
   <stop id="stop3399" style="stop-color:#aaa" offset="0"/>
   <stop id="stop3401" style="stop-color:#8c8c8c" offset="1"/>
  </linearGradient>
  <linearGradient id="linearGradient3262" y2="16" gradientUnits="userSpaceOnUse" x2="25" gradientTransform="translate(-17.058)" x1="25">
   <stop id="stop3311" style="stop-color:#f6f6f6" offset="0"/>
   <stop id="stop3313" style="stop-color:#ccc" offset="1"/>
  </linearGradient>
  <linearGradient id="linearGradient2547" y2="43.298" gradientUnits="userSpaceOnUse" x2="23.931" gradientTransform="matrix(.40560 0 0 .41964 2.2936 -2.1694)" y1="14.702" x1="23.931">
   <stop id="stop3663" style="stop-color:#cc7032" offset="0"/>
   <stop id="stop3665" style="stop-color:#bb2d13" offset=".72725"/>
   <stop id="stop3667" style="stop-color:#a87300;stop-opacity:0" offset="1"/>
  </linearGradient>
  <linearGradient id="linearGradient2545" y2="21.565" gradientUnits="userSpaceOnUse" x2="51.34" gradientTransform="matrix(0 .21128 -.20421 0 16.404 5.1528)" y1="21.565" x1="-5.4561">
   <stop id="stop3671" style="stop-color:#ecb56c" offset="0"/>
   <stop id="stop3673" style="stop-color:#e86225" offset=".87936"/>
   <stop id="stop3675" style="stop-color:#b07c0b;stop-opacity:0" offset="1"/>
  </linearGradient>
  <linearGradient id="linearGradient3325" y2="42.242" gradientUnits="userSpaceOnUse" x2="22.76" gradientTransform="matrix(.40560 0 0 .41964 2.2936 -2.1694)" y1="29.137" x1="22.76">
   <stop id="stop4224" style="stop-color:#fff" offset="0"/>
   <stop id="stop4226" style="stop-color:#fff;stop-opacity:0" offset="1"/>
  </linearGradient>
 </defs>
 <g id="layer1">
  <g id="g3361">
   <g id="g2479">
    <path id="path2426" style="stroke-linejoin:round;stroke:url(#linearGradient3264);display:block;fill:url(#linearGradient3262)" d="m6.9375 0.5c-0.2484 0-0.4375 0.18908-0.4375 0.4375v1.25c-0.5539 0.1422-1.0512 0.3719-1.5312 0.6563l-0.9063-0.9063c-0.17566-0.17566-0.44934-0.17566-0.625 0l-1.5 1.5c-0.17566 0.17566-0.17566 0.44934 0 0.625l0.9063 0.9063c-0.2844 0.48-0.5141 0.9773-0.6563 1.5312h-1.25c-0.24842 0-0.4375 0.1891-0.4375 0.4375v2.125c1e-8 0.24842 0.18908 0.4375 0.4375 0.4375h1.25c0.1422 0.5539 0.37188 1.0512 0.65625 1.5312l-0.9063 0.907c-0.17566 0.17566-0.17566 0.44934 0 0.625l1.5 1.5c0.17566 0.17566 0.44934 0.17566 0.625 0l0.9063-0.907c0.48 0.285 0.9773 0.514 1.5312 0.656v1.25c1e-7 0.24842 0.18908 0.4375 0.4375 0.4375h2.125c0.2484 0 0.4375-0.189 0.4375-0.438v-1.25c0.5539-0.1422 1.0512-0.37188 1.5312-0.65625l0.90625 0.90625c0.17566 0.17566 0.44934 0.17566 0.625 0l1.5-1.5c0.17566-0.17566 0.17566-0.44934 0-0.625l-0.906-0.906c0.285-0.48 0.514-0.977 0.656-1.531h1.25c0.249 0 0.438-0.1891 0.438-0.4375v-2.125c0-0.2484-0.189-0.4375-0.438-0.4375h-1.25c-0.142-0.5539-0.371-1.0512-0.656-1.5312l0.906-0.9063c0.17566-0.17566 0.17566-0.44934 0-0.625l-1.5-1.5c-0.17566-0.17566-0.44934-0.17566-0.625 0l-0.906 0.9063c-0.48-0.2844-0.977-0.5141-1.531-0.6563v-1.25c0-0.24842-0.1891-0.4375-0.4375-0.4375h-2.125zm1.0625 5.5c1.104 0 2 0.896 2 2s-0.896 2-2 2-2-0.896-2-2 0.896-2 2-2z"/>
    <path id="path3315" style="opacity:.05" d="m8 3.4651c-2.5006 0-4.5349 2.0343-4.5349 4.5349 0 2.501 2.0343 4.535 4.5349 4.535 2.501 0 4.535-2.034 4.535-4.535 0-2.5006-2.034-4.5349-4.535-4.5349zm0 2.093c1.3479 0 2.4419 1.094 2.4419 2.4419s-1.094 2.4419-2.4419 2.4419-2.4419-1.0941-2.4419-2.442 1.094-2.4419 2.4419-2.4419z"/>
    <path id="path28" style="stroke:url(#linearGradient3260);fill:none" d="m8 4c-2.2056 0-4 1.7944-4 4 0 2.206 1.7944 4 4 4 2.206 0 4-1.794 4-4 0-2.2056-1.794-4-4-4z"/>
   </g>
  </g>
  <path id="path2487" style="stroke-linejoin:round;stroke:url(#linearGradient2547);stroke-linecap:round;fill:url(#linearGradient2545)" d="m15.557 9.5-4.057-5-4.0068 5h2.0068v7h4v-7h2.0569z"/>
  <path id="path3323" style="opacity:.4;stroke:url(#linearGradient3325);stroke-linecap:round;fill:none" d="m11.5 6.0938-1.9062 2.4062c0.51451 0.050258 0.90672 0.48304 0.90625 1v5h2v-5c0.000867-0.52802 0.41064-0.9651 0.9375-1l-1.938-2.4062z"/>
 </g>
</svg>
